assets/polkadex/logo.svg

<svg width="64" height="64" viewBox="0 0 64 64" fill="none" xmlns="http://www.w3.org/2000/svg">
<path d="M64 56.3821V47.2393L48.381 31.6203H39.2382L64 56.3821Z" fill="white"/>
<path d="M7.61966 63.2345H16.6527L32.0005 47.9997L47.2385 63.2345H56.4795L32.0005 38.8569L7.61966 63.2345Z" fill="white"/>
<path d="M0 6.85278L0 15.9956L15.619 31.6145H24.7618L0 6.85278Z" fill="white"/>
<path d="M56.3818 -0.000102654H47.3488L32.001 15.2346L16.763 -0.000102654H7.52197L32.001 24.3774L56.3818 -0.000102654Z" fill="white"/>
<path d="M32.0714 35.8022C34.4259 35.8022 36.3347 33.8934 36.3347 31.5389C36.3347 29.1844 34.4259 27.2756 32.0714 27.2756C29.7168 27.2756 27.8081 29.1844 27.8081 31.5389C27.8081 33.8934 29.7168 35.8022 32.0714 35.8022Z" fill="#E6007A"/>
</svg>

<svg width="64" height="64" fill="none" xmlns="http://www.w3.org/2000/svg">
    <path fill="#1c1c26" d="M0 0h64v64H0z"/>
    <path d="M64 56.382V47.24L48.381 31.62h-9.143L64 56.382z" fill="#fff"/>
    <path d="M7.62 63.234h9.033L32 48l15.238 15.234h9.24L32.002 38.858 7.62 63.234z" fill="#fff"/>
    <path d="M0 6.853v9.143l15.619 15.618h9.143L0 6.854z" fill="#fff"/>
    <path d="M56.382 0h-9.033L32 15.235 16.763 0H7.522l24.479 24.377L56.381 0z" fill="#fff"/>
    <path d="M32.071 35.802a4.263 4.263 0 100-8.527 4.263 4.263 0 000 8.527z" fill="#E6007A"/>
</svg>
